resources/svg/houston-dynamo-fc.svg

<svg xmlns="http://www.w3.org/2000/svg" viewBox="0 0 163 200"><path d="M81.09.11c-.07.06-18.24 11.24-40.38 24.83S.35 49.76.22 49.89l-.22.23c-.01 97.67 0 99.8.14 99.93.08.08 18.38 11.35 40.67 25.04C63.1 188.79 81.42 200 81.52 200c.11 0 17.57-10.67 40.69-24.86 22.28-13.68 40.57-24.95 40.65-25.04.14-.17.15-2.23.15-50.1s-.01-49.93-.15-50.1c-.08-.1-14.87-9.22-32.87-20.28C112 18.57 93.78 7.39 89.51 4.77 83.39 1.01 81.69 0 81.48 0c-.15 0-.32.05-.39.11" style="fill:#101820"/><path d="M42.95 28.88 4.44 52.53v94.92c59.5 36.56 76.85 47.21 76.94 47.26.14.07 5.63-3.28 38.73-23.62l38.57-23.7-.04-94.85C98.95 15.87 81.59 5.23 81.54 5.22c-.04 0-17.41 10.65-38.59 23.66" style="fill:#ff6b00"/><path d="M44.43 31.54 7.34 54.33v91.34c57.41 35.27 74.11 45.52 74.16 45.53.04.02 16.76-10.22 37.16-22.75l37.08-22.78V54.32C99.7 19.91 82.99 9.66 82.47 9.34l-.96-.58z" style="fill:#101820"/><path d="M57.66 38.76c-.54.52-.97.99-.96 1.04.01.04.83.89 1.82 1.87l1.8 1.8-.01 26.61-5.34 5.34 5.35 5.27-.01 7.88h2.85v-9.1l-4.07-4.08 4.07-4.08V42.16c-3.38-3.38-4.4-4.36-4.44-4.36-.05 0-.52.43-1.06.96m10.19 1.22-2.2 2.18.04 31.96h38.47V62.2h-2.86l-.04 9.02-32.64.05V43.39l3.55-3.54c-1.52-1.6-1.99-2.06-2.04-2.06-.04 0-1.07.99-2.28 2.19m30.85-1.16-1.02 1.02 3.62 3.51v5.55h2.86v-6.74c-3.38-3.38-4.38-4.36-4.41-4.36-.02 0-.5.46-1.05 1.02m10.18 1.16-2.16 2.18-.04 6.74h2.94v-5.51c2.71-2.72 3.5-3.55 3.5-3.59 0-.05-.43-.52-.96-1.05-.52-.52-.99-.95-1.03-.95s-1.05.98-2.25 2.18m-73.71 6.8-.98.97c1.26 1.3 2.71 2.77 4.03 4.11l2.41 2.43h17.15v-2.86H41.85c-4.36-4.37-5.64-5.63-5.67-5.63-.02 0-.48.44-1.01.98m35.9 6.08v1.43h46.9l9.74 9.75v22.57l-9.7 9.8h-5.95v2.94h7.05l11.53-11.55V62.9l-11.45-11.47H71.07zm-30.4 22.53v18.57l2.89-.04.04-37.1h-2.93zm5.46 0v18.57h52.65v-2.94h-49.8V59.76l8.76-.05.04-2.89H46.13zm24.96-17.12.02 1.44 44.66.05 6.56 6.57v18.04l-6.64 6.65h-3.63v2.94h4.77l8.44-8.45V65.1l-8.28-8.28H71.06zm35.59 8.44v4.51l4.16 4.17-4.16 4.16v28.98l4.45 4.45 2.03-2.04-3.62-3.63V80.73c4.17-4.08 5.38-5.3 5.38-5.34 0-.05-1.2-1.28-2.65-2.74L109.62 70v-7.8h-2.94zm-40.99 15.9v5.96l2.89-.04.04-9.02h32.68v27.8l-3.62 3.63 2.08 2.08 4.4-4.41V76.65H65.69zM37.46 99.62c-1.79 1.76-3.24 3.24-3.22 3.29s.46.54.99 1.1l.95 1.01 5.75-5.67h56.85v-2.94l-58.07.01zm22.85 4.97v2.72c-3.37 3.38-3.61 3.65-3.54 3.77.05.08.52.55 1.05 1.04l.95.9 4.39-4.41v-6.73h-2.85zm5.38.65-.01 3.37 4.42 4.41 2.02-2.04c-.74-.82-1.53-1.63-2.23-2.33l-1.27-1.26v-5.51h-2.93z" style="fill:#ff6b00"/><path d="M19.64 129.92v9.92h3.51v-8.66h7.17v8.66h3.5V120h-3.51l-.03 7.88-7.13.04V120h-3.51zm20.54-8.27-1.67 1.66.04 13.22 3.3 3.31h7.99l3.38-3.39v-13.06L49.84 120h-7.99zm17.68 6.62v8.26l3.31 3.31h7.66l3.3-3.31V120h-3.26l-.01 15.06-1.5 1.52-4.48-.01-1.51-1.51V120h-3.5zm20.26-6.58-1.71 1.7.04 4.81 3.3 3.31h6.03l1.51 1.51v2.04l-1.51 1.51h-4.89l-2.53-2.44-2.46 2.48 3.28 3.22 8.31.01 3.3-3.31v-4.98l-3.3-3.3h-5.95l-1.59-1.6v-1.79l1.54-1.51h4.21l2.25 2.16 2.43-2.45-3.05-3.06h-7.5zm14.67-1.59c-.02.06-.02.81-.02 1.66l.02 1.55 5.5.04v16.49h3.59v-16.49h5.54V120c-13.16 0-14.6.02-14.63.1m18.7 1.55-1.67 1.66.04 13.22 3.3 3.31h7.99l3.3-3.31v-13.22l-3.3-3.31h-7.99zm17.77 8.27v9.92h3.34c.01-11.87.03-13.24.1-13.14.06.08 1.61 3.06 3.45 6.64l3.34 6.5h3.95V120h-3.34c-.01 12.61-.02 13.33-.13 13.18-.07-.09-1.59-3.09-3.38-6.67l-3.26-6.51h-4.07z" style="fill:#fff"/><path d="m42.75 124.06-.73.72.03 10.28 1.51 1.51h4.57l1.5-1.51v-10.28l-1.42-1.43h-4.73zm71.31 0-.73.72.04 10.28 1.5 1.51h4.57l1.5-1.51.01-10.28-1.43-1.43h-4.73z" style="fill:#101820"/><path d="m94.58 145.45-.81.8.04 6.93 1.59 1.59 4.97.01 1.59-1.6v-7.02l-1.51-1.51h-5.06zm22.9 0-.81.8.04 6.93 1.59 1.59 5.05.01 1.47-1.47c-1.33-1.33-1.74-1.72-1.78-1.72-.03 0-.33.26-.67.57l-.61.57-1.83.01-.53-.54-.01-4.98c.45-.44.48-.44 1.39-.44h.94l1.06 1.04 1.92-1.66-1.51-1.51h-4.9zm-78.93 4.26v4.98h6.64l1.59-1.59v-6.77l-1.59-1.6h-6.64zm9.86-4.94c0 .03.66 1.52 1.47 3.33l1.46 3.29v3.3h3.02v-3.26c2.27-5.03 2.93-6.54 2.93-6.59 0-.08-.29-.11-1.2-.11h-1.2c-1.17 2.88-1.55 3.93-1.61 4.19s-.13.47-.16.47c-.04 0-.06-.03-.06-.06-.01-.04-.06-.3-.12-.6-.07-.29-.43-1.3-.8-2.24l-.68-1.71c-2.36-.04-3.05-.03-3.05-.01m10.6 4.94v4.98h2.36c0-4.8.03-6.2.06-6.2s.11.25.17.55.51 1.69 1 3.08.89 2.54.89 2.55.81.02 1.79.02h1.79v-9.96h-2.36c0 4.87-.03 6.21-.07 6.17-.03-.05-.11-.3-.17-.57-.05-.27-.47-1.54-.92-2.82a443 443 0 0 1-.89-2.55l-.07-.23h-3.58zm11.57-.14c-.73 2.66-1.34 4.9-1.36 4.98-.02.13.08.14 1.26.14l1.28.01.45-1.88h2.44c.11.41.21.83.3 1.2l.15.68c2.87-.01 2.97-.02 2.94-.15-.02-.08-.68-2.3-1.47-4.94-.78-2.64-1.43-4.81-1.43-4.83 0-.03-.72-.05-1.61-.05h-1.62zm9.7.14v4.98h2.28c0-4.84.03-5.87.08-5.87s.1.08.12.18.08.39.12.63c.05.25.42 1.48.82 2.74l.72 2.28h2.08c1.11-3.67 1.48-5 1.54-5.32.06-.33.13-.6.16-.6.04 0 .06 1.35.06 2.98v2.98h2.69v-9.96c-2.78 0-3.58.02-3.58.05 0 .02-.26.96-.57 2.1-.31 1.13-.63 2.35-.72 2.71s-.21.87-.25 1.12c-.05.26-.12.47-.15.47-.04 0-.11-.22-.17-.51-.06-.28-.4-1.57-.75-2.87-.35-1.31-.68-2.53-.73-2.72l-.08-.35h-3.67zm27.63 0v4.98h2.69v-3.42h3.5v-2.05l-3.46-.04-.04-2.24h3.99v-2.21h-6.68z" style="fill:#fff"/><path d="M41.32 149.71v2.94c2.24.01 2.24.01 2.46-.22l.23-.23v-4.98c-.45-.45-.45-.45-1.57-.45l-1.12.01zM96.7 147l-.24.23.04 5.06c.44.44.47.45 1.38.45.92 0 .94-.01 1.16-.23l.22-.22c.01-5.15.01-5.15-.17-5.33-.18-.17-.27-.18-1.17-.18-.97 0-.99 0-1.22.22m-23.27.2c0 .02-.06.34-.13.72s-.25 1.16-.41 1.73c-.15.58-.27 1.06-.27 1.08 0 .03.38.05.85.05s.86-.02.86-.05c0-.02-.13-.54-.28-1.16s-.32-1.41-.37-1.75c-.04-.35-.12-.64-.17-.64-.04 0-.08.01-.08.02" style="fill:#101820"/><path d="M82.38 166.42c-3.21 3.5-5.82 6.38-5.8 6.42.02.03 1.61.06 3.53.06 1.97 0 3.5.03 3.49.07s-1.08 2.22-2.36 4.86c-1.29 2.63-2.33 4.8-2.31 4.82.03.03 2.65-2.81 5.83-6.3 3.19-3.49 5.79-6.38 5.79-6.41s-1.58-.06-3.51-.06-3.5-.03-3.5-.06c0-.04 1.06-2.22 2.36-4.86s2.35-4.82 2.34-4.84c-.02-.03-2.65 2.81-5.86 6.3" style="fill:#ff6b00"/></svg>

<svg xmlns="http://www.w3.org/2000/svg" viewBox="0 0 163 200">
	<style>
		tspan {
			white-space: pre
		}

		.shp0 {
			fill: #101820
		}

		.shp1 {
			fill: #ff6b00
		}

		.shp2 {
			fill: #ffffff
		}
	</style>
	<g>
		<path class="shp0"
			d="M81.09 0.11C81.02 0.17 62.85 11.35 40.71 24.94C18.57 38.53 0.35 49.76 0.22 49.89L0 50.12C-0.01 147.79 0 149.92 0.14 150.05C0.22 150.13 18.52 161.4 40.81 175.09C63.1 188.79 81.42 200 81.52 200C81.63 200 99.09 189.33 122.21 175.14C144.49 161.46 162.78 150.19 162.86 150.1C163 149.93 163.01 147.87 163.01 100C163.01 52.13 163 50.07 162.86 49.9C162.78 49.8 147.99 40.68 129.99 29.62C112 18.57 93.78 7.39 89.51 4.77C83.39 1.01 81.69 0 81.48 0C81.33 0 81.16 0.05 81.09 0.11Z" />
		<path class="shp1"
			d="M42.95 28.88L4.44 52.53L4.44 147.45C63.94 184.01 81.29 194.66 81.38 194.71C81.52 194.78 87.01 191.43 120.11 171.09L158.68 147.39L158.64 52.54C98.95 15.87 81.59 5.23 81.54 5.22C81.5 5.22 64.13 15.87 42.95 28.88Z" />
		<path class="shp0"
			d="M44.43 31.54L7.34 54.33L7.34 145.67C64.75 180.94 81.45 191.19 81.5 191.2C81.54 191.22 98.26 180.98 118.66 168.45L155.74 145.67L155.74 54.32C99.7 19.91 82.99 9.66 82.47 9.34L81.51 8.76L44.43 31.54Z" />
		<path class="shp1"
			d="M57.66 38.76C57.12 39.28 56.69 39.75 56.7 39.8C56.71 39.84 57.53 40.69 58.52 41.67L60.32 43.47L60.31 70.08L54.97 75.42L60.32 80.69L60.31 88.57L63.16 88.57L63.16 79.47L59.09 75.39L63.16 71.31L63.16 42.16C59.78 38.78 58.76 37.8 58.72 37.8C58.67 37.8 58.2 38.23 57.66 38.76ZM67.85 39.98L65.65 42.16L65.69 74.12L104.16 74.12L104.16 62.2L101.3 62.2L101.26 71.22L68.62 71.27L68.62 43.39L72.17 39.85C70.65 38.25 70.18 37.79 70.13 37.79C70.09 37.79 69.06 38.78 67.85 39.98ZM98.7 38.82L97.68 39.84L101.3 43.35L101.3 48.9L104.16 48.9L104.16 42.16C100.78 38.78 99.78 37.8 99.75 37.8C99.73 37.8 99.25 38.26 98.7 38.82ZM108.88 39.98L106.72 42.16L106.68 48.9L109.62 48.9L109.62 43.39C112.33 40.67 113.12 39.84 113.12 39.8C113.12 39.75 112.69 39.28 112.16 38.75C111.64 38.23 111.17 37.8 111.13 37.8C111.09 37.8 110.08 38.78 108.88 39.98ZM35.17 46.78L34.19 47.75C35.45 49.05 36.9 50.52 38.22 51.86L40.63 54.29L57.78 54.29L57.78 51.43L41.85 51.43C37.49 47.06 36.21 45.8 36.18 45.8C36.16 45.8 35.7 46.24 35.17 46.78ZM71.07 52.86L71.07 54.29L117.97 54.29L127.71 64.04L127.71 86.61L118.01 96.41L112.06 96.41L112.06 99.35L119.11 99.35L130.64 87.8L130.64 62.9L119.19 51.43L71.07 51.43L71.07 52.86ZM40.67 75.39L40.67 93.96L43.56 93.92L43.6 56.82L40.67 56.82L40.67 75.39ZM46.13 75.39L46.13 93.96L98.78 93.96L98.78 91.02L48.98 91.02L48.98 59.76L57.74 59.71L57.78 56.82L46.13 56.82L46.13 75.39ZM71.09 58.27L71.11 59.71L115.77 59.76L122.33 66.33L122.33 84.37L115.69 91.02L112.06 91.02L112.06 93.96L116.83 93.96L125.27 85.51L125.27 65.1L116.99 56.82L71.06 56.82L71.09 58.27ZM106.68 66.71L106.68 71.22L110.84 75.39L106.68 79.55L106.68 108.53L111.13 112.98L113.16 110.94L109.54 107.31L109.54 80.73C113.71 76.65 114.92 75.43 114.92 75.39C114.92 75.34 113.72 74.11 112.27 72.65L109.62 70L109.62 62.2L106.68 62.2L106.68 66.71ZM65.69 82.61L65.69 88.57L68.58 88.53L68.62 79.51L101.3 79.51L101.3 107.31L97.68 110.94L99.76 113.02L104.16 108.61L104.16 76.65L65.69 76.65L65.69 82.61ZM37.46 99.62C35.67 101.38 34.22 102.86 34.24 102.91C34.26 102.96 34.7 103.45 35.23 104.01L36.18 105.02L41.93 99.35L98.78 99.35L98.78 96.41L40.71 96.42L37.46 99.62ZM60.31 104.59L60.31 107.31C56.94 110.69 56.7 110.96 56.77 111.08C56.82 111.16 57.29 111.63 57.82 112.12L58.77 113.02L63.16 108.61L63.16 101.88L60.31 101.88L60.31 104.59ZM65.69 105.24L65.68 108.61L70.1 113.02L72.12 110.98C71.38 110.16 70.59 109.35 69.89 108.65L68.62 107.39L68.62 101.88L65.69 101.88L65.69 105.24Z" />
		<path class="shp2"
			d="M19.64 129.92L19.64 139.84L23.15 139.84L23.15 131.18L30.32 131.18L30.32 139.84L33.82 139.84L33.82 120L30.31 120L30.28 127.88L23.15 127.92L23.15 120L19.64 120L19.64 129.92ZM40.18 121.65L38.51 123.31L38.55 136.53L41.85 139.84L49.84 139.84L53.22 136.45L53.22 123.39L49.84 120L41.85 120L40.18 121.65ZM57.86 128.27L57.86 136.53L61.17 139.84L68.83 139.84L72.13 136.53L72.13 120L68.87 120L68.86 135.06L67.36 136.58L62.88 136.57L61.37 135.06L61.37 120L57.87 120L57.86 128.27ZM78.12 121.69L76.41 123.39L76.45 128.2L79.75 131.51L85.78 131.51L87.29 133.02L87.29 135.06L85.78 136.57L80.89 136.57L78.36 134.13L75.9 136.61L79.18 139.83L87.49 139.84L90.79 136.53L90.79 131.55L87.49 128.25L81.54 128.25L79.95 126.65L79.95 124.86L81.49 123.35L85.7 123.35L87.95 125.51L90.38 123.06L87.33 120L79.83 120L78.12 121.69ZM92.79 120.1C92.77 120.16 92.77 120.91 92.77 121.76L92.79 123.31L98.29 123.35L98.29 139.84L101.88 139.84L101.88 123.35L107.42 123.35L107.42 120C94.26 120 92.82 120.02 92.79 120.1ZM111.49 121.65L109.82 123.31L109.86 136.53L113.16 139.84L121.15 139.84L124.45 136.53L124.45 123.31L121.15 120L113.16 120L111.49 121.65ZM129.26 129.92L129.26 139.84L132.6 139.84C132.61 127.97 132.63 126.6 132.7 126.7C132.76 126.78 134.31 129.76 136.15 133.34L139.49 139.84L143.44 139.84L143.44 120L140.1 120C140.09 132.61 140.08 133.33 139.97 133.18C139.9 133.09 138.38 130.09 136.59 126.51L133.33 120L129.26 120L129.26 129.92Z" />
		<path class="shp0"
			d="M42.75 124.06L42.02 124.78L42.05 135.06L43.56 136.57L48.13 136.57L49.63 135.06L49.63 124.78L48.21 123.35L43.48 123.35L42.75 124.06ZM114.06 124.06L113.33 124.78L113.37 135.06L114.87 136.57L119.44 136.57L120.94 135.06L120.95 124.78L119.52 123.35L114.79 123.35L114.06 124.06Z" />
		<path class="shp2"
			d="M94.58 145.45L93.77 146.25L93.81 153.18L95.4 154.77L100.37 154.78L101.96 153.18L101.96 146.16L100.45 144.65L95.39 144.65L94.58 145.45ZM117.48 145.45L116.67 146.25L116.71 153.18L118.3 154.77L123.35 154.78L124.82 153.31C123.49 151.98 123.08 151.59 123.04 151.59C123.01 151.59 122.71 151.85 122.37 152.16L121.76 152.73L119.93 152.74L119.4 152.2L119.39 147.22C119.84 146.78 119.87 146.78 120.78 146.78L121.72 146.78L122.78 147.82L124.7 146.16L123.19 144.65L118.29 144.65L117.48 145.45ZM38.55 149.71L38.55 154.69L45.19 154.69L46.78 153.1L46.78 146.33L45.19 144.73L38.55 144.73L38.55 149.71ZM48.41 144.77C48.41 144.8 49.07 146.29 49.88 148.1L51.34 151.39L51.34 154.69L54.36 154.69L54.36 151.43C56.63 146.4 57.29 144.89 57.29 144.84C57.29 144.76 57 144.73 56.09 144.73L54.89 144.73C53.72 147.61 53.34 148.66 53.28 148.92C53.22 149.18 53.15 149.39 53.12 149.39C53.08 149.39 53.06 149.36 53.06 149.33C53.05 149.29 53 149.03 52.94 148.73C52.87 148.44 52.51 147.43 52.14 146.49L51.46 144.78C49.1 144.74 48.41 144.75 48.41 144.77ZM59.01 149.71L59.01 154.69L61.37 154.69C61.37 149.89 61.4 148.49 61.43 148.49C61.46 148.49 61.54 148.74 61.6 149.04C61.66 149.34 62.11 150.73 62.6 152.12C63.09 153.51 63.49 154.66 63.49 154.67C63.49 154.68 64.3 154.69 65.28 154.69L67.07 154.69L67.07 144.73L64.71 144.73C64.71 149.6 64.68 150.94 64.64 150.9C64.61 150.85 64.53 150.6 64.47 150.33C64.42 150.06 64 148.79 63.55 147.51C63.1 146.23 62.7 145.08 62.66 144.96L62.59 144.73L59.01 144.73L59.01 149.71ZM70.58 149.57C69.85 152.23 69.24 154.47 69.22 154.55C69.2 154.68 69.3 154.69 70.48 154.69L71.76 154.7L72.21 152.82L74.65 152.82C74.76 153.23 74.86 153.65 74.95 154.02L75.1 154.7C77.97 154.69 78.07 154.68 78.04 154.55C78.02 154.47 77.36 152.25 76.57 149.61C75.79 146.97 75.14 144.8 75.14 144.78C75.14 144.75 74.42 144.73 73.53 144.73L71.91 144.73L70.58 149.57ZM80.28 149.71L80.28 154.69L82.56 154.69C82.56 149.85 82.59 148.82 82.64 148.82C82.69 148.82 82.74 148.9 82.76 149C82.78 149.1 82.84 149.39 82.88 149.63C82.93 149.88 83.3 151.11 83.7 152.37L84.42 154.65L86.5 154.65C87.61 150.98 87.98 149.65 88.04 149.33C88.1 149 88.17 148.73 88.2 148.73C88.24 148.73 88.26 150.08 88.26 151.71L88.26 154.69L90.95 154.69L90.95 144.73C88.17 144.73 87.37 144.75 87.37 144.78C87.37 144.8 87.11 145.74 86.8 146.88C86.49 148.01 86.17 149.23 86.08 149.59C85.99 149.95 85.87 150.46 85.83 150.71C85.78 150.97 85.71 151.18 85.68 151.18C85.64 151.18 85.57 150.96 85.51 150.67C85.45 150.39 85.11 149.1 84.76 147.8C84.41 146.49 84.08 145.27 84.03 145.08L83.95 144.73L80.28 144.73L80.28 149.71ZM107.91 149.71L107.91 154.69L110.6 154.69L110.6 151.27L114.1 151.27L114.1 149.22L110.64 149.18L110.6 146.94L114.59 146.94L114.59 144.73L107.91 144.73L107.91 149.71Z" />
		<path class="shp0"
			d="M41.32 149.71L41.32 152.65C43.56 152.66 43.56 152.66 43.78 152.43L44.01 152.2L44.01 147.22C43.56 146.77 43.56 146.77 42.44 146.77L41.32 146.78L41.32 149.71ZM96.7 147L96.46 147.23L96.5 152.29C96.94 152.73 96.97 152.74 97.88 152.74C98.8 152.74 98.82 152.73 99.04 152.51L99.26 152.29C99.27 147.14 99.27 147.14 99.09 146.96C98.91 146.79 98.82 146.78 97.92 146.78C96.95 146.78 96.93 146.78 96.7 147ZM73.43 147.2C73.43 147.22 73.37 147.54 73.3 147.92C73.23 148.3 73.05 149.08 72.89 149.65C72.74 150.23 72.62 150.71 72.62 150.73C72.62 150.76 73 150.78 73.47 150.78C73.94 150.78 74.33 150.76 74.33 150.73C74.33 150.71 74.2 150.19 74.05 149.57C73.9 148.95 73.73 148.16 73.68 147.82C73.64 147.47 73.56 147.18 73.51 147.18C73.47 147.18 73.43 147.19 73.43 147.2Z" />
		<path class="shp1"
			d="M82.38 166.42C79.17 169.92 76.56 172.8 76.58 172.84C76.6 172.87 78.19 172.9 80.11 172.9C82.08 172.9 83.61 172.93 83.6 172.97C83.59 173.01 82.52 175.19 81.24 177.83C79.95 180.46 78.91 182.63 78.93 182.65C78.96 182.68 81.58 179.84 84.76 176.35C87.95 172.86 90.55 169.97 90.55 169.94C90.55 169.91 88.97 169.88 87.04 169.88C85.11 169.88 83.54 169.85 83.54 169.82C83.54 169.78 84.6 167.6 85.9 164.96C87.2 162.32 88.25 160.14 88.24 160.12C88.22 160.09 85.59 162.93 82.38 166.42Z" />
	</g>
</svg>
